images/icons/bullet-form.svg

<svg height="24pt" viewBox="0 0 24 24" width="24pt" xmlns="http://www.w3.org/2000/svg"><path d="m22.5 15h-13c-.828125 0-1.5-.671875-1.5-1.5v-3c0-.828125.671875-1.5 1.5-1.5h13c.828125 0 1.5.671875 1.5 1.5v3c0 .828125-.671875 1.5-1.5 1.5zm-13-5c-.277344 0-.5.222656-.5.5v3c0 .277344.222656.5.5.5h13c.277344 0 .5-.222656.5-.5v-3c0-.277344-.222656-.5-.5-.5zm0 0"/><path d="m22.5 24h-13c-.828125 0-1.5-.671875-1.5-1.5v-3c0-.828125.671875-1.5 1.5-1.5h13c.828125 0 1.5.671875 1.5 1.5v3c0 .828125-.671875 1.5-1.5 1.5zm-13-5c-.277344 0-.5.222656-.5.5v3c0 .277344.222656.5.5.5h13c.277344 0 .5-.222656.5-.5v-3c0-.277344-.222656-.5-.5-.5zm0 0"/><path d="m3 15c-1.652344 0-3-1.347656-3-3s1.347656-3 3-3 3 1.347656 3 3-1.347656 3-3 3zm0-5c-1.101562 0-2 .898438-2 2s.898438 2 2 2 2-.898438 2-2-.898438-2-2-2zm0 0"/><path d="m22.5 6h-13c-.828125 0-1.5-.671875-1.5-1.5v-3c0-.828125.671875-1.5 1.5-1.5h13c.828125 0 1.5.671875 1.5 1.5v3c0 .828125-.671875 1.5-1.5 1.5zm-13-5c-.277344 0-.5.222656-.5.5v3c0 .277344.222656.5.5.5h13c.277344 0 .5-.222656.5-.5v-3c0-.277344-.222656-.5-.5-.5zm0 0"/><path d="m3 6c-1.652344 0-3-1.347656-3-3s1.347656-3 3-3 3 1.347656 3 3-1.347656 3-3 3zm0-5c-1.101562 0-2 .898438-2 2s.898438 2 2 2 2-.898438 2-2-.898438-2-2-2zm0 0"/><path d="m3 24c-1.652344 0-3-1.347656-3-3s1.347656-3 3-3 3 1.347656 3 3-1.347656 3-3 3zm0-5c-1.101562 0-2 .898438-2 2s.898438 2 2 2 2-.898438 2-2-.898438-2-2-2zm0 0"/></svg>

<?xml version="1.0" encoding="UTF-8"?>
<svg xmlns="http://www.w3.org/2000/svg" xmlns:xlink="http://www.w3.org/1999/xlink" width="24pt" height="24pt" viewBox="0 0 24 24" version="1.1">
<g id="surface1">
<path style=" stroke:none;fill-rule:nonzero;fill:rgb(0%,0%,0%);fill-opacity:1;" d="M 22.5 15 L 9.5 15 C 8.671875 15 8 14.328125 8 13.5 L 8 10.5 C 8 9.671875 8.671875 9 9.5 9 L 22.5 9 C 23.328125 9 24 9.671875 24 10.5 L 24 13.5 C 24 14.328125 23.328125 15 22.5 15 Z M 9.5 10 C 9.222656 10 9 10.222656 9 10.5 L 9 13.5 C 9 13.777344 9.222656 14 9.5 14 L 22.5 14 C 22.777344 14 23 13.777344 23 13.5 L 23 10.5 C 23 10.222656 22.777344 10 22.5 10 Z M 9.5 10 "/>
<path style=" stroke:none;fill-rule:nonzero;fill:rgb(0%,0%,0%);fill-opacity:1;" d="M 22.5 24 L 9.5 24 C 8.671875 24 8 23.328125 8 22.5 L 8 19.5 C 8 18.671875 8.671875 18 9.5 18 L 22.5 18 C 23.328125 18 24 18.671875 24 19.5 L 24 22.5 C 24 23.328125 23.328125 24 22.5 24 Z M 9.5 19 C 9.222656 19 9 19.222656 9 19.5 L 9 22.5 C 9 22.777344 9.222656 23 9.5 23 L 22.5 23 C 22.777344 23 23 22.777344 23 22.5 L 23 19.5 C 23 19.222656 22.777344 19 22.5 19 Z M 9.5 19 "/>
<path style=" stroke:none;fill-rule:nonzero;fill:rgb(0%,0%,0%);fill-opacity:1;" d="M 3 15 C 1.347656 15 0 13.652344 0 12 C 0 10.347656 1.347656 9 3 9 C 4.652344 9 6 10.347656 6 12 C 6 13.652344 4.652344 15 3 15 Z M 3 10 C 1.898438 10 1 10.898438 1 12 C 1 13.101562 1.898438 14 3 14 C 4.101562 14 5 13.101562 5 12 C 5 10.898438 4.101562 10 3 10 Z M 3 10 "/>
<path style=" stroke:none;fill-rule:nonzero;fill:rgb(0%,0%,0%);fill-opacity:1;" d="M 22.5 6 L 9.5 6 C 8.671875 6 8 5.328125 8 4.5 L 8 1.5 C 8 0.671875 8.671875 0 9.5 0 L 22.5 0 C 23.328125 0 24 0.671875 24 1.5 L 24 4.5 C 24 5.328125 23.328125 6 22.5 6 Z M 9.5 1 C 9.222656 1 9 1.222656 9 1.5 L 9 4.5 C 9 4.777344 9.222656 5 9.5 5 L 22.5 5 C 22.777344 5 23 4.777344 23 4.5 L 23 1.5 C 23 1.222656 22.777344 1 22.5 1 Z M 9.5 1 "/>
<path style=" stroke:none;fill-rule:nonzero;fill:rgb(0%,0%,0%);fill-opacity:1;" d="M 3 6 C 1.347656 6 0 4.652344 0 3 C 0 1.347656 1.347656 0 3 0 C 4.652344 0 6 1.347656 6 3 C 6 4.652344 4.652344 6 3 6 Z M 3 1 C 1.898438 1 1 1.898438 1 3 C 1 4.101562 1.898438 5 3 5 C 4.101562 5 5 4.101562 5 3 C 5 1.898438 4.101562 1 3 1 Z M 3 1 "/>
<path style=" stroke:none;fill-rule:nonzero;fill:rgb(0%,0%,0%);fill-opacity:1;" d="M 3 24 C 1.347656 24 0 22.652344 0 21 C 0 19.347656 1.347656 18 3 18 C 4.652344 18 6 19.347656 6 21 C 6 22.652344 4.652344 24 3 24 Z M 3 19 C 1.898438 19 1 19.898438 1 21 C 1 22.101562 1.898438 23 3 23 C 4.101562 23 5 22.101562 5 21 C 5 19.898438 4.101562 19 3 19 Z M 3 19 "/>
</g>
</svg>
